icons/thermometer-fill.svg

<svg xmlns="http://www.w3.org/2000/svg" width="24" height="24" fill="none"><g clip-path="url(#a)"><g><path fill="#121212" d="M20.5564 3.44396C22.1184 5.00596 22.1184 7.53796 20.5564 9.10096L12.3564 17.301C11.7144 17.943 10.8724 18.348 9.96941 18.448L6.59141 18.822L4.29341 21.122C3.90341 21.512 3.26941 21.512 2.87941 21.122C2.48941 20.731 2.48941 20.098 2.87941 19.707L5.17741 17.408L5.55241 14.031C5.65241 13.128 6.05741 12.286 6.69941 11.644L14.8994 3.44396C16.4624 1.88196 18.9944 1.88196 20.5564 3.44396ZM11.3644 12.636L9.95041 14.05L12.0714 16.172L13.4854 14.757L11.3644 12.636ZM14.1924 9.80796L12.7784 11.222L14.8994 13.343L16.3144 11.929L14.1924 9.80796ZM17.0214 6.97896L15.6074 8.39296L17.7274 10.515L19.1434 9.09996L17.0224 6.97796L17.0214 6.97896Z"/></g></g><defs><clipPath id="a"><rect width="24" height="24" fill="white"/></clipPath></defs></svg>

<svg width="24" height="24" fill="none" xmlns="http://www.w3.org/2000/svg"><g clip-path="url(#a)"><path d="M20.556 3.444a4 4 0 0 1 0 5.657l-8.2 8.2a3.999 3.999 0 0 1-2.387 1.147l-3.378.374-2.298 2.3a1 1 0 0 1-1.414-1.415l2.298-2.299.375-3.377c.1-.903.505-1.745 1.147-2.387l8.2-8.2a4 4 0 0 1 5.657 0Zm-9.192 9.192L9.95 14.05l2.121 2.122 1.414-1.415-2.12-2.121Zm2.828-2.828-1.414 1.414 2.121 2.121 1.415-1.414-2.122-2.121Zm2.83-2.829-1.415 1.414 2.12 2.122L19.143 9.1l-2.12-2.122-.002.001Z" /></g><defs><clipPath id="a"><path fill="#fff" d="M0 0h24v24H0z"/></clipPath></defs></svg>
